X: 6710
T: Ceol Sa Bhaile
R: jig
M: 6/8
K: Fmajor
|:AGA F2C|FGF FcB|AGA FEF|G2A B2G|
AGA F2C|FGF FAB|cdc cBA|G2A B2G:|
|:A2c cd(c|c)dc2 dc|A2 c2 d c|d2 e f3|
A2c cd(c|c)dc2 de|fed cBA|G2AB2G:|

